assets/Recycling symbol/Flat/recycling_symbol_flat.svg

<svg width="32" height="32" viewBox="0 0 32 32" fill="none" xmlns="http://www.w3.org/2000/svg">
<path d="M12.8435 3.56006L16.3635 8.28006L13.1535 13.3701C12.8235 13.8901 12.1435 14.0501 11.6235 13.7201L8.30351 11.6301C7.78351 11.3001 7.62351 10.6201 7.95351 10.1001L11.7435 4.09006L12.2735 3.66006L12.8435 3.56006Z" fill="#008463"/>
<path d="M23.8235 22.7001L29.6735 22.0401L29.8735 21.5001L29.7735 20.8201L26.5035 14.5101C26.2235 13.9701 25.5535 13.7501 25.0035 14.0401L21.5135 15.8501C20.9735 16.1301 20.7535 16.8001 21.0435 17.3501L23.8235 22.7001Z" fill="#008463"/>
<path d="M7.74348 22.03L5.63348 27.52L6.01348 27.95L6.65348 28.17H13.7535C14.3635 28.17 14.8635 27.67 14.8635 27.06V23.13C14.8635 22.52 14.3635 22.02 13.7535 22.02H7.74348V22.03Z" fill="#008463"/>
<path d="M22.2735 7.76L23.3135 7.16C23.7335 6.92 24.2435 7.28 24.1435 7.74L22.7735 14.13C22.7035 14.45 22.3735 14.64 22.0635 14.54L15.8335 12.57C15.3735 12.43 15.3035 11.8 15.7235 11.56L16.9735 10.83L13.1535 4.25C13.0835 4.13 12.9835 4.03 12.8635 3.95C12.4535 3.7 11.9135 3.82 11.6535 4.23C12.1335 3.47 12.9735 3 13.8835 3H17.9935C18.9335 3 19.8135 3.5 20.2835 4.32L22.2735 7.76Z" fill="#00D26A"/>
<path d="M11.6835 20.19L10.0235 13.87C9.94347 13.55 9.60347 13.38 9.29347 13.49L3.15347 15.73C2.70347 15.9 2.66347 16.52 3.08347 16.75L4.14347 17.31L2.30347 20.83C1.86347 21.67 1.90347 22.67 2.41347 23.47L4.61347 26.95C5.09347 27.72 5.94347 28.18 6.85347 28.18C6.36347 28.18 5.97347 27.79 5.97347 27.3C5.97347 27.15 6.01347 27.01 6.07347 26.89L9.61347 20.15L10.8935 20.82C11.3135 21.05 11.8035 20.65 11.6835 20.19Z" fill="#00D26A"/>
<path d="M29.6935 20.6701C29.9135 21.1001 29.7535 21.6301 29.3135 21.8601C29.1835 21.9301 29.0435 21.9601 28.9035 21.9601L21.2935 21.9201L21.3035 20.4701C21.3035 19.9901 20.7335 19.7301 20.3735 20.0601L15.5235 24.4401C15.2835 24.6601 15.2835 25.0401 15.5235 25.2601L20.3435 29.6701C20.7035 30.0001 21.2735 29.7501 21.2735 29.2601V28.0601L25.2535 28.0801C26.1935 28.0801 27.0735 27.5901 27.5535 26.7701L29.6335 23.2201C30.0935 22.4401 30.1135 21.4801 29.6935 20.6701Z" fill="#00D26A"/>
</svg>

<svg xmlns="http://www.w3.org/2000/svg" width="32" height="32" fill="none"><path fill="#008463" d="m12.844 3.56 3.52 4.72-3.21 5.09c-.33.52-1.01.68-1.53.35l-3.32-2.09c-.52-.33-.68-1.01-.35-1.53l3.79-6.01.53-.43.57-.1ZM23.823 22.7l5.85-.66.2-.54-.1-.68-3.27-6.31c-.28-.54-.95-.76-1.5-.47l-3.49 1.81c-.54.28-.76.95-.47 1.5l2.78 5.35ZM7.743 22.03l-2.11 5.49.38.43.64.22h7.1c.61 0 1.11-.5 1.11-1.11v-3.93c0-.61-.5-1.11-1.11-1.11h-6.01v.01Z"/><path fill="#00D26A" d="m22.273 7.76 1.04-.6c.42-.24.93.12.83.58l-1.37 6.39c-.07.32-.4.51-.71.41l-6.23-1.97a.555.555 0 0 1-.11-1.01l1.25-.73-3.82-6.58a.922.922 0 0 0-.29-.3.887.887 0 0 0-1.21.28A2.64 2.64 0 0 1 13.883 3h4.11c.94 0 1.82.5 2.29 1.32l1.99 3.44ZM11.684 20.19l-1.66-6.32a.554.554 0 0 0-.73-.38l-6.14 2.24c-.45.17-.49.79-.07 1.02l1.06.56-1.84 3.52c-.44.84-.4 1.84.11 2.64l2.2 3.48c.48.77 1.33 1.23 2.24 1.23-.49 0-.88-.39-.88-.88 0-.15.04-.29.1-.41l3.54-6.74 1.28.67c.42.23.91-.17.79-.63ZM29.694 20.67a.884.884 0 0 1-.79 1.29l-7.61-.04.01-1.45c0-.48-.57-.74-.93-.41l-4.85 4.38c-.24.22-.24.6 0 .82l4.82 4.41c.36.33.93.08.93-.41v-1.2l3.98.02c.94 0 1.82-.49 2.3-1.31l2.08-3.55c.46-.78.48-1.74.06-2.55Z"/></svg>
